resources/icons/hicolor/scalable/mimetypes/ymuse-album.svg

<svg xmlns="http://www.w3.org/2000/svg" width="512" height="512"><path d="M 21.662085,21.662 H 490.34092 V 490.339 H 21.662085 Z" fill="#bca8ff"/><path d="m 256.001,97.797 c -87.39434,0 -158.203618,70.809 -158.203618,158.203 0,87.394 70.809278,158.203 158.203618,158.203 87.39434,0 158.20362,-70.809 158.20362,-158.203 0,-87.394 -70.80928,-158.203 -158.20362,-158.203 z M 153.9346,256 h -20.41408 c 0,-67.555 54.92522,-122.48 122.48048,-122.48 v 20.413 c -56.26422,0 -102.0674,45.803 -102.0674,102.067 z m 102.0664,61.24 c -33.81013,0 -61.24024,-27.43 -61.24024,-61.24 0,-33.81 27.43011,-61.24 61.24024,-61.24 33.81013,0 61.24024,27.43 61.24024,61.24 0,33.81 -27.43011,61.24 -61.24024,61.24 z m 0,-81.653 c -11.29104,0 -20.41308,9.122 -20.41308,20.413 0,11.291 9.12204,20.413 20.41308,20.413 11.29104,0 20.41308,-9.122 20.41308,-20.413 0,-11.291 -9.12204,-20.413 -20.41308,-20.413 z M 54.857214,0 C 24.572096,0 0,24.572 0,54.857 V 457.143 C 0,487.428 24.572096,512 54.857214,512 H 457.14279 C 487.4279,512 512,487.428 512,457.143 V 54.857 C 512,24.572 487.4279,0 457.14279,0 Z M 32.021125,32.021 H 479.97887 V 479.98 H 32.020125 Z"/></svg>

<svg xmlns="http://www.w3.org/2000/svg" width="512" height="512"><path fill="#bca8ff" d="M21.662 21.662h468.677v468.677H21.662z"/><path d="M256 97.797c-87.394 0-158.203 70.809-158.203 158.203S168.606 414.203 256 414.203 414.203 343.394 414.203 256 343.394 97.797 256 97.797zM153.934 256H133.52c0-67.555 54.925-122.48 122.48-122.48v20.413c-56.264 0-102.067 45.803-102.067 102.067zM256 317.24c-33.81 0-61.24-27.43-61.24-61.24s27.43-61.24 61.24-61.24 61.24 27.43 61.24 61.24-27.43 61.24-61.24 61.24zm0-81.653c-11.291 0-20.413 9.122-20.413 20.413s9.122 20.413 20.413 20.413 20.413-9.122 20.413-20.413-9.122-20.413-20.413-20.413zM54.857 0C24.572 0 0 24.572 0 54.857v402.286C0 487.428 24.572 512 54.857 512h402.284c30.285 0 54.857-24.572 54.857-54.857V54.857C511.998 24.572 487.426 0 457.141 0zM32.021 32.021h447.956V479.98H32.02z"/></svg>
